src/assets/outline/PasswordCheck.svg

<svg width="24" height="24" viewBox="0 0 24 24"  xmlns="http://www.w3.org/2000/svg">
<path d="M11.02 20.25H7.5C6.75 20.25 6.2 20.22 5.73 20.15C2.4 19.78 1.75 17.8 1.75 14.5V9.5C1.75 6.2 2.41 4.21 5.76 3.84C6.2 3.78 6.75 3.75 7.5 3.75H10.96C11.37 3.75 11.71 4.09 11.71 4.5C11.71 4.91 11.37 5.25 10.96 5.25H7.5C6.82 5.25 6.34 5.28 5.95 5.33C3.92 5.55 3.25 6.19 3.25 9.5V14.5C3.25 17.81 3.92 18.44 5.92 18.67C6.34 18.73 6.82 18.75 7.5 18.75H11.02C11.43 18.75 11.77 19.09 11.77 19.5C11.77 19.91 11.43 20.25 11.02 20.25Z" />
<path d="M16.5 20.25H15.02C14.61 20.25 14.27 19.91 14.27 19.5C14.27 19.09 14.61 18.75 15.02 18.75H16.5C17.18 18.75 17.66 18.72 18.05 18.67C20.08 18.45 20.75 17.81 20.75 14.5V9.5C20.75 6.19 20.08 5.56 18.08 5.33C17.66 5.27 17.18 5.25 16.5 5.25H15.02C14.61 5.25 14.27 4.91 14.27 4.5C14.27 4.09 14.61 3.75 15.02 3.75H16.5C17.25 3.75 17.8 3.78 18.27 3.85C21.6 4.22 22.25 6.2 22.25 9.5V14.5C22.25 17.8 21.59 19.79 18.24 20.16C17.8 20.22 17.25 20.25 16.5 20.25Z" />
<path d="M15 22.75C14.59 22.75 14.25 22.41 14.25 22V2C14.25 1.59 14.59 1.25 15 1.25C15.41 1.25 15.75 1.59 15.75 2V22C15.75 22.41 15.41 22.75 15 22.75Z" />
<path d="M6.7002 13.0002C6.5702 13.0002 6.4402 12.9702 6.3202 12.9202C6.2002 12.8702 6.0902 12.8002 5.9902 12.7102C5.9002 12.6102 5.8202 12.5002 5.7702 12.3802C5.7202 12.2602 5.7002 12.1302 5.7002 12.0002C5.7002 11.7402 5.8102 11.4802 5.9902 11.2902C6.3602 10.9202 7.0302 10.9202 7.4102 11.2902C7.5902 11.4802 7.7002 11.7402 7.7002 12.0002C7.7002 12.1302 7.6702 12.2602 7.6202 12.3802C7.5702 12.5002 7.5002 12.6102 7.4102 12.7102C7.3102 12.8002 7.2002 12.8702 7.0802 12.9202C6.9602 12.9702 6.8302 13.0002 6.7002 13.0002Z" />
<path d="M10.7002 13.0002C10.5702 13.0002 10.4402 12.9702 10.3202 12.9202C10.2002 12.8702 10.0902 12.8002 9.9902 12.7102C9.9002 12.6102 9.8302 12.5002 9.7702 12.3802C9.7302 12.2602 9.7002 12.1302 9.7002 12.0002C9.7002 11.7402 9.8102 11.4802 9.9902 11.2902C10.3602 10.9202 11.0402 10.9202 11.4102 11.2902C11.5902 11.4802 11.7002 11.7402 11.7002 12.0002C11.7002 12.1302 11.6702 12.2602 11.6202 12.3802C11.5702 12.5002 11.5002 12.6102 11.4102 12.7102C11.3102 12.8002 11.2002 12.8702 11.0802 12.9202C10.9602 12.9702 10.8302 13.0002 10.7002 13.0002Z" />
</svg>

<?xml version="1.0" encoding="UTF-8"?>
<svg width="24" height="24" viewBox="0 0 24 24" xmlns="http://www.w3.org/2000/svg">
 <path d="m11.02 20.25h-3.52c-0.75 0-1.3-0.03-1.77-0.1-3.33-0.37-3.98-2.35-3.98-5.65v-5c0-3.3 0.66-5.29 4.01-5.66 0.44-0.06 0.99-0.09 1.74-0.09h3.46c0.41 0 0.75 0.34 0.75 0.75s-0.34 0.75-0.75 0.75h-3.46c-0.68 0-1.16 0.03-1.55 0.08-2.03 0.22-2.7 0.86-2.7 4.17v5c0 3.31 0.67 3.94 2.67 4.17 0.42 0.06 0.9 0.08 1.58 0.08h3.52c0.41 0 0.75 0.34 0.75 0.75s-0.34 0.75-0.75 0.75z"/>
 <path d="m16.5 20.25h-1.48c-0.41 0-0.75-0.34-0.75-0.75s0.34-0.75 0.75-0.75h1.48c0.68 0 1.16-0.03 1.55-0.08 2.03-0.22 2.7-0.86 2.7-4.17v-5c0-3.31-0.67-3.94-2.67-4.17-0.42-0.06-0.9-0.08-1.58-0.08h-1.48c-0.41 0-0.75-0.34-0.75-0.75s0.34-0.75 0.75-0.75h1.48c0.75 0 1.3 0.03 1.77 0.1 3.33 0.37 3.98 2.35 3.98 5.65v5c0 3.3-0.66 5.29-4.01 5.66-0.44 0.06-0.99 0.09-1.74 0.09z"/>
 <path d="m15 22.75c-0.41 0-0.75-0.34-0.75-0.75v-20c0-0.41 0.34-0.75 0.75-0.75s0.75 0.34 0.75 0.75v20c0 0.41-0.34 0.75-0.75 0.75z"/>
 <path d="m6.7002 13c-0.13 0-0.26-0.03-0.38-0.08s-0.23-0.12-0.33-0.21c-0.09-0.1-0.17-0.21-0.22-0.33s-0.07-0.25-0.07-0.38c0-0.26 0.11-0.52 0.29-0.71 0.37-0.37 1.04-0.37 1.42 0 0.18 0.19 0.29 0.45 0.29 0.71 0 0.13-0.03 0.26-0.08 0.38s-0.12 0.23-0.21 0.33c-0.1 0.09-0.21 0.16-0.33 0.21s-0.25 0.08-0.38 0.08z"/>
 <path d="m10.7 13c-0.13 0-0.26-0.03-0.38-0.08s-0.23-0.12-0.33-0.21c-0.09-0.1-0.16-0.21-0.22-0.33-0.04-0.12-0.07-0.25-0.07-0.38 0-0.26 0.11-0.52 0.29-0.71 0.37-0.37 1.05-0.37 1.42 0 0.18 0.19 0.29 0.45 0.29 0.71 0 0.13-0.03 0.26-0.08 0.38s-0.12 0.23-0.21 0.33c-0.1 0.09-0.21 0.16-0.33 0.21s-0.25 0.08-0.38 0.08z"/>
</svg>
